X:1
T:Partition sans titre
C:Compositeur / Arrangeur
L:1/8
M:4/4
I:linebreak $
K:D
V:1 treble nm="Violon" snm="Vln."
V:1
"A" cBcd cBAc | Bc/B/ A2 B3 c |"D" dcde dcBd |1"A" cc A2 A3 d :|2"A" cc A2 A3 f |:"A" ecef ecAc | %6
"D" d2 B2"E7" B3 c | dcde dcBd |1"A" c2 A2 A3 f :|2"A" cc A2 A3 d |] %10
